X: 6645
T: Ceanngulla, The
R: slide
M: 12/8
K: Dmajor
|:A3 ABc d3 d2A|def g2e fed ~B3|
d2B AFA d2c d2e|1 f2b afd efe dcB:|2 f2b afd efe def||
|:~g3 bag|~f3 a2f|e2f a2f e2d ~B3|
d2B AFA d2c d2e|1 f2b afd efe def:|2 f2b afd efe dcB||

